X:1
T:L’Emmanuello, 878.87
T:L’Emmanuello, 878.87
T:Lorenzo Perosi, 1903
T:Public Domain Courtesy of the Cyber Hymnal™
C:Lorenzo Perosi, 1903
Z:Public Domain
Z:Courtesy of the Cyber Hymnal™
%%score ( 1 2 ) ( 3 4 )
L:1/8
Q:1/4=110
M:4/4
K:Eb
V:1 treble 
V:2 treble 
V:3 bass 
V:4 bass 
V:1
 [EG]2 [DF]2 | B3 z c [FA]2 [FB]2 | [EG]2 [DF]2 [EG]2 [EB]2 | [EA]3 [EG] [EF]2 [DG]2 | %4
 E4 [FB]2 [EG]2 | [Gc]3 [GB] (=AB) [Fc]2 x | [FB]2 [DF]2 [EG]2 [EB]2 | [EA]3 [EG] [EF]2 [DG]2 | %8
 E4 |] %9
V:2
 x4 | (EF) G2 x5 | x8 | x8 | E4 x4 | x4 F2 x3 | x8 | x8 | E4 |] %9
V:3
 [E,B,]2 B,2 | B,2 [E,E]2 C2 [D,B,]2 x | [E,B,]2 [B,,B,]2 [E,B,]2 [_D,G,]2 | %3
 [C,A,]3 [B,,B,] [A,,C]2 [B,,A,]2 | [E,G,]4 [D,B,]2 [E,B,]2 | E3 z D (CD) [F,E]2 | %6
 [B,,D]2 [B,,B,]2 [E,B,]2 [_D,G,]2 | [C,A,]3 [B,,B,] [A,,C]2 [B,,A,]2 | [E,G,]4 |] %9
V:4
 x2 B,A, | (G,F,) x (F, E,) x4 | x8 | x8 | x8 | (C,D,) (E,2 E,2) x3 | x8 | x8 | x4 |] %9

